ddp-workspace/projects/ddp-osteo/src/assets/images/heart.svg

<?xml version="1.0" encoding="UTF-8"?>
<svg width="107px" height="105px" viewBox="0 0 107 105" version="1.1" xmlns="http://www.w3.org/2000/svg" xmlns:xlink="http://www.w3.org/1999/xlink">
    <!-- Generator: sketchtool 55.2 (78181) - https://sketchapp.com -->
    <title>B7D23CE1-4E82-4134-B0A6-6D943BA025F7@1x</title>
    <desc>Created with sketchtool.</desc>
    <g id="Landing-Page" stroke="none" stroke-width="1" fill="none" fill-rule="evenodd">
        <g id="0---Landing-Page" transform="translate(-1061.000000, -1190.000000)">
            <g id="Heart" transform="translate(1055.000000, 1183.000000)">
                <g>
                    <path d="M110.622222,80.9772727 L98.7333333,80.9772727 L98.7333333,70.8841477 C108.1957,58.7805114 113,46.5229545 113,34.4431818 C113,19.31125 100.733044,7 85.6555556,7 C73.3541222,7 62.9251889,15.1947727 59.5,26.4297727 C56.076,15.1947727 45.6458778,7 33.3444444,7 C19.7720889,7 8.4824,16.9761932 6.36261111,30.0057386 L6.34834444,30.0200568 C5.96433333,30.4054545 5.91677778,30.9805682 6.16763333,31.4351705 C6.05944444,32.423125 6,33.4253977 6,34.4431818 C6,35.4836364 6.0428,36.5133523 6.11056667,37.5382955 C5.95125556,37.8938636 5.9893,38.2995455 6.19616667,38.6360227 C7.53247778,53.4684659 15.7643444,66.5540909 25.3515444,77.0194886 C25.3598667,77.0278409 25.3622444,77.0397727 25.3705667,77.0469318 C25.3753222,77.0517045 25.3836444,77.0540909 25.3884,77.0588636 C39.9784444,92.9699432 57.6738667,102.813693 58.9305222,103.502159 C59.1076667,103.598807 59.3038333,103.647727 59.5,103.647727 C59.6961667,103.647727 59.8923333,103.598807 60.0694778,103.502159 C60.2157111,103.422216 63.3757778,101.681364 68.1432222,98.4836364 C68.3596,98.7210795 68.6651444,98.875 69.0111111,98.875 L80.9,98.875 L80.9,110.806818 C80.9,111.466648 81.4314333,112 82.0888889,112 L97.5444444,112 C98.2019,112 98.7333333,111.466648 98.7333333,110.806818 L98.7333333,98.875 L110.622222,98.875 C111.279678,98.875 111.811111,98.3416477 111.811111,97.6818182 L111.811111,82.1704545 C111.811111,81.510625 111.279678,80.9772727 110.622222,80.9772727 Z" id="Path" fill="#FFDF03" opacity="0.7"></path>
                    <g id="noun_Health_172423">
                        <rect id="Rectangle" x="0" y="0" width="119" height="119"></rect>
                        <path d="M110.622222,80.9772727 L98.7333333,80.9772727 L98.7333333,70.8841477 C108.1957,58.7805114 113,46.5229545 113,34.4431818 C113,19.31125 100.733044,7 85.6555556,7 C73.3541222,7 62.9251889,15.1947727 59.5,26.4297727 C56.076,15.1947727 45.6458778,7 33.3444444,7 C19.7720889,7 8.4824,16.9761932 6.36261111,30.0057386 L6.34834444,30.0200568 C5.96433333,30.4054545 5.91677778,30.9805682 6.16763333,31.4351705 C6.05944444,32.423125 6,33.4253977 6,34.4431818 C6,35.4836364 6.0428,36.5133523 6.11056667,37.5382955 C5.95125556,37.8938636 5.9893,38.2995455 6.19616667,38.6360227 C7.53247778,53.4684659 15.7643444,66.5540909 25.3515444,77.0194886 C25.3598667,77.0278409 25.3622444,77.0397727 25.3705667,77.0469318 C25.3753222,77.0517045 25.3836444,77.0540909 25.3884,77.0588636 C39.9784444,92.9699432 57.6738667,102.813693 58.9305222,103.502159 C59.1076667,103.598807 59.3038333,103.647727 59.5,103.647727 C59.6961667,103.647727 59.8923333,103.598807 60.0694778,103.502159 C60.2157111,103.422216 63.3757778,101.681364 68.1432222,98.4836364 C68.3596,98.7210795 68.6651444,98.875 69.0111111,98.875 L80.9,98.875 L80.9,110.806818 C80.9,111.466648 81.4314333,112 82.0888889,112 L97.5444444,112 C98.2019,112 98.7333333,111.466648 98.7333333,110.806818 L98.7333333,98.875 L110.622222,98.875 C111.279678,98.875 111.811111,98.3416477 111.811111,97.6818182 L111.811111,82.1704545 C111.811111,81.510625 111.279678,80.9772727 110.622222,80.9772727 Z M102.996689,83.3636364 L83.2777778,103.15375 L83.2777778,97.6818182 C83.2777778,97.4801705 83.2147667,97.3 83.1279778,97.1329545 L96.9975556,83.2132955 C97.164,83.3003977 97.3435222,83.3636364 97.5444444,83.3636364 L102.996689,83.3636364 Z M74.2588667,96.4886364 L96.3555556,74.3121591 L96.3555556,80.4832955 L80.4078,96.4886364 L74.2588667,96.4886364 Z M70.2,96.4886364 L70.2,96.4540341 L70.2,92.2098864 L79.0144222,83.3636364 L82.0888889,83.3636364 C82.7463444,83.3636364 83.2777778,82.8302841 83.2777778,82.1704545 L83.2777778,79.0848864 L92.0922,70.2386364 L96.3555556,70.2386364 L96.3555556,70.4784659 L96.3555556,70.9378409 L70.8966889,96.4886364 L70.2,96.4886364 Z M70.2,88.8355682 L70.2,83.3636364 L75.6522444,83.3636364 L70.2,88.8355682 Z M83.2777778,75.7105682 L83.2777778,70.2386364 L88.7300222,70.2386364 L83.2777778,75.7105682 Z M89.7144222,109.613636 L96.3555556,102.948523 L96.3555556,109.613636 L89.7144222,109.613636 Z M97.5444444,96.4886364 C96.8869889,96.4886364 96.3555556,97.0219886 96.3555556,97.6818182 L96.3555556,99.5742045 L86.3522444,109.613636 L83.2777778,109.613636 L83.2777778,106.528068 L106.358867,83.3636364 L109.433333,83.3636364 L109.433333,86.4492045 L99.4300222,96.4886364 L97.5444444,96.4886364 Z M102.7922,96.4886364 L109.433333,89.8235227 L109.433333,96.4886364 L102.7922,96.4886364 Z M59.5011889,101.084773 C58.4347556,100.469091 55.9380889,98.9883523 52.5973111,96.7523295 L55.5849889,93.7526705 C56.0498444,93.2861364 56.0498444,92.5320455 55.5849889,92.0655114 C55.1201333,91.5989773 54.3687556,91.5989773 53.9039,92.0655114 L50.5952222,95.3861364 C49.0579889,94.320625 47.3911667,93.1250568 45.6351778,91.8065909 L49.6405444,87.7867614 C50.1054,87.3202273 50.1054,86.5661364 49.6405444,86.0996023 C49.1756889,85.6330682 48.4243111,85.6330682 47.9594556,86.0996023 L43.7258222,90.3485227 C42.4002111,89.3211932 41.0377444,88.2282386 39.6515,87.0744318 L43.6961,83.0152273 C44.1609556,82.5486932 44.1609556,81.7946023 43.6961,81.3280682 C43.2312444,80.8615341 42.4798667,80.8615341 42.0150111,81.3280682 L37.8277444,85.5292614 C36.3380667,84.2477841 34.8353111,82.8982955 33.3325556,81.4831818 L37.7516556,77.048125 C38.2165111,76.5815909 38.2165111,75.8275 37.7516556,75.3609659 C37.2868,74.8944318 36.5354222,74.8944318 36.0705667,75.3609659 L31.6110444,79.8377841 C30.3876778,78.6410227 29.1750111,77.3977273 27.9778,76.1186364 L32.9961,71.0822159 C33.4609556,70.6156818 33.4609556,69.8615909 32.9961,69.3950568 C32.5312444,68.9285227 31.7798667,68.9285227 31.3150111,69.3950568 L26.3692333,74.3586932 C25.2160111,73.0700568 24.0794333,71.7527841 22.9820889,70.3925568 L28.2393556,65.1163068 C28.7042111,64.6497727 28.7042111,63.8956818 28.2393556,63.4291477 C27.7745,62.9626136 27.0231222,62.9626136 26.5582667,63.4291477 L21.5066778,68.4989773 C20.4247889,67.0826705 19.3892667,65.629375 18.3977333,64.1438636 C18.5154333,64.0865909 18.6307556,64.0209659 18.7282444,63.923125 L24.0782444,58.5538068 C24.5431,58.0872727 24.5431,57.3331818 24.0782444,56.8666477 C23.6133889,56.4001136 22.8620111,56.4001136 22.3971556,56.8666477 L17.1125444,62.1703409 C16.3005333,60.8673864 15.5432111,59.5346023 14.8191778,58.1851136 C14.9416333,58.1278409 15.0605222,58.0586364 15.1615778,57.9572159 L21.1060222,51.9913068 C21.5708778,51.5247727 21.5708778,50.7706818 21.1060222,50.3041477 C20.6411667,49.8376136 19.8897889,49.8376136 19.4249333,50.3041477 L13.7123222,56.0373864 C13.0263333,54.6330114 12.4021667,53.2035795 11.8315,51.7538636 L19.9159444,43.6402273 C20.3808,43.1736932 20.3808,42.4196023 19.9159444,41.9530682 C19.4510889,41.4865341 18.6997111,41.4865341 18.2348556,41.9530682 L10.9303222,49.2839773 C10.4084,47.7388068 9.93997778,46.1757386 9.57023333,44.5852273 C9.85913333,44.5840341 10.1492222,44.4778409 10.3774889,44.2630682 L19.8886,35.3142045 C20.3677222,34.864375 20.3915,34.1078977 19.9421,33.6270455 C19.4938889,33.1473864 18.7401333,33.1223295 18.2610111,33.5733523 L9.09705556,42.1964773 C8.86878889,40.9185795 8.68451111,39.6299432 8.56681111,38.3246023 L21.1036444,25.7425 C21.5685,25.2759659 21.5685,24.521875 21.1036444,24.0553409 C20.6387889,23.5888068 19.8874111,23.5888068 19.4225556,24.0553409 L8.40036667,35.1173295 C8.40036667,34.890625 8.37777778,34.6686932 8.37777778,34.4431818 C8.37777778,33.3096591 8.47883333,32.2035795 8.62506667,31.1094318 L24.6738778,15.0026705 C25.1387333,14.5361364 25.1387333,13.7820455 24.6738778,13.3155114 C24.2090222,12.8489773 23.4576444,12.8489773 22.9927889,13.3155114 L9.58568889,26.7710227 C12.8230333,16.6981818 22.2449778,9.38636364 33.3444444,9.38636364 C47.1117778,9.38636364 58.3111111,20.6261364 58.3111111,34.4431818 C58.3111111,35.1018182 58.8437333,35.6363636 59.5,35.6363636 C60.1562667,35.6363636 60.6888889,35.1018182 60.6888889,34.4431818 C60.6888889,20.6261364 71.8882222,9.38636364 85.6555556,9.38636364 C99.4228889,9.38636364 110.622222,20.6261364 110.622222,34.4431818 C110.622222,45.4920455 106.375511,56.7509091 97.9950333,67.9405682 C97.8559333,67.8832955 97.7049444,67.8522727 97.5444444,67.8522727 L82.0888889,67.8522727 C81.4314333,67.8522727 80.9,68.385625 80.9,69.0454545 L80.9,80.9772727 L69.0111111,80.9772727 C68.3536556,80.9772727 67.8222222,81.510625 67.8222222,82.1704545 L67.8222222,95.8228409 C63.7918889,98.5719318 60.7186111,100.386761 59.5011889,101.084773 Z" id="Shape" fill="#000000" fill-rule="nonzero"></path>
                    </g>
                    <path d="M59.5011889,101.084773 C58.4347556,100.469091 55.9380889,98.9883523 52.5973111,96.7523295 L55.5849889,93.7526705 C56.0498444,93.2861364 56.0498444,92.5320455 55.5849889,92.0655114 C55.1201333,91.5989773 54.3687556,91.5989773 53.9039,92.0655114 L50.5952222,95.3861364 C49.0579889,94.320625 47.3911667,93.1250568 45.6351778,91.8065909 L49.6405444,87.7867614 C50.1054,87.3202273 50.1054,86.5661364 49.6405444,86.0996023 C49.1756889,85.6330682 48.4243111,85.6330682 47.9594556,86.0996023 L43.7258222,90.3485227 C42.4002111,89.3211932 41.0377444,88.2282386 39.6515,87.0744318 L43.6961,83.0152273 C44.1609556,82.5486932 44.1609556,81.7946023 43.6961,81.3280682 C43.2312444,80.8615341 42.4798667,80.8615341 42.0150111,81.3280682 L37.8277444,85.5292614 C36.3380667,84.2477841 34.8353111,82.8982955 33.3325556,81.4831818 L37.7516556,77.048125 C38.2165111,76.5815909 38.2165111,75.8275 37.7516556,75.3609659 C37.2868,74.8944318 36.5354222,74.8944318 36.0705667,75.3609659 L31.6110444,79.8377841 C30.3876778,78.6410227 29.1750111,77.3977273 27.9778,76.1186364 L32.9961,71.0822159 C33.4609556,70.6156818 33.4609556,69.8615909 32.9961,69.3950568 C32.5312444,68.9285227 31.7798667,68.9285227 31.3150111,69.3950568 L26.3692333,74.3586932 C25.2160111,73.0700568 24.0794333,71.7527841 22.9820889,70.3925568 L28.2393556,65.1163068 C28.7042111,64.6497727 28.7042111,63.8956818 28.2393556,63.4291477 C27.7745,62.9626136 27.0231222,62.9626136 26.5582667,63.4291477 L21.5066778,68.4989773 C20.4247889,67.0826705 19.3892667,65.629375 18.3977333,64.1438636 C18.5154333,64.0865909 18.6307556,64.0209659 18.7282444,63.923125 L24.0782444,58.5538068 C24.5431,58.0872727 24.5431,57.3331818 24.0782444,56.8666477 C23.6133889,56.4001136 22.8620111,56.4001136 22.3971556,56.8666477 L17.1125444,62.1703409 C16.3005333,60.8673864 15.5432111,59.5346023 14.8191778,58.1851136 C14.9416333,58.1278409 15.0605222,58.0586364 15.1615778,57.9572159 L21.1060222,51.9913068 C21.5708778,51.5247727 21.5708778,50.7706818 21.1060222,50.3041477 C20.6411667,49.8376136 19.8897889,49.8376136 19.4249333,50.3041477 L13.7123222,56.0373864 C13.0263333,54.6330114 12.4021667,53.2035795 11.8315,51.7538636 L19.9159444,43.6402273 C20.3808,43.1736932 20.3808,42.4196023 19.9159444,41.9530682 C19.4510889,41.4865341 18.6997111,41.4865341 18.2348556,41.9530682 L10.9303222,49.2839773 C10.4084,47.7388068 9.93997778,46.1757386 9.57023333,44.5852273 C9.85913333,44.5840341 10.1492222,44.4778409 10.3774889,44.2630682 L19.8886,35.3142045 C20.3677222,34.864375 20.3915,34.1078977 19.9421,33.6270455 C19.4938889,33.1473864 18.7401333,33.1223295 18.2610111,33.5733523 L9.09705556,42.1964773 C8.86878889,40.9185795 8.68451111,39.6299432 8.56681111,38.3246023 L21.1036444,25.7425 C21.5685,25.2759659 21.5685,24.521875 21.1036444,24.0553409 C20.6387889,23.5888068 19.8874111,23.5888068 19.4225556,24.0553409 L8.40036667,35.1173295 C8.40036667,34.890625 8.37777778,34.6686932 8.37777778,34.4431818 C8.37777778,33.3096591 8.47883333,32.2035795 8.62506667,31.1094318 L24.6738778,15.0026705 C25.1387333,14.5361364 25.1387333,13.7820455 24.6738778,13.3155114 C24.2090222,12.8489773 23.4576444,12.8489773 22.9927889,13.3155114 L9.58568889,26.7710227 C12.8230333,16.6981818 22.2449778,9.38636364 33.3444444,9.38636364 C47.1117778,9.38636364 58.3111111,20.6261364 58.3111111,34.4431818 C58.3111111,35.1018182 58.8437333,35.6363636 59.5,35.6363636 C60.1562667,35.6363636 60.6888889,35.1018182 60.6888889,34.4431818 C60.6888889,20.6261364 71.8882222,9.38636364 85.6555556,9.38636364 C99.4228889,9.38636364 110.622222,20.6261364 110.622222,34.4431818 C110.622222,45.4920455 106.375511,56.7509091 97.9950333,67.9405682 C97.8559333,67.8832955 97.7049444,67.8522727 97.5444444,67.8522727 L82.0888889,67.8522727 C81.4314333,67.8522727 80.9,68.385625 80.9,69.0454545 L80.9,80.9772727 L69.0111111,80.9772727 C68.3536556,80.9772727 67.8222222,81.510625 67.8222222,82.1704545 L67.8222222,95.8228409 C63.7918889,98.5719318 60.7186111,100.386761 59.5011889,101.084773 Z" id="Path" fill="#F57437"></path>
                </g>
            </g>
        </g>
    </g>
</svg>

<?xml version="1.0" encoding="UTF-8" standalone="no"?>
<svg xmlns="http://www.w3.org/2000/svg" height="105px" width="107px" version="1.1" xmlns:xlink="http://www.w3.org/1999/xlink" viewBox="0 0 107 105">
 <title>B7D23CE1-4E82-4134-B0A6-6D943BA025F7@1x</title>
 <desc>Created with sketchtool.</desc>
 <g id="Landing-Page" fill-rule="evenodd" fill="none">
  <g id="0---Landing-Page" transform="translate(-1061 -1190)">
   <g id="Heart" transform="translate(1055 1183)">
    <path id="Path" opacity=".7" fill="#FFDF03" d="m110.62 80.977h-11.887v-10.093c9.467-12.103 14.267-24.361 14.267-36.441 0-15.132-12.27-27.443-27.344-27.443-12.302 0-22.731 8.195-26.156 19.43-3.424-11.235-13.854-19.43-26.156-19.43-13.572 0-24.862 9.976-26.981 23.006l-0.0147 0.014c-0.384 0.385-0.4315 0.961-0.1807 1.415-0.1082 0.988-0.1676 1.99-0.1676 3.008 0 1.041 0.0428 2.07 0.1106 3.095-0.1593 0.356-0.1213 0.762 0.0856 1.098 1.3363 14.832 9.5678 27.918 19.156 38.383 0.008 0.009 0.01 0.021 0.019 0.028 0.004 0.005 0.013 0.007 0.017 0.012 14.59 15.911 32.286 25.751 33.543 26.441 0.177 0.1 0.373 0.15 0.569 0.15s0.392-0.05 0.569-0.15c0.147-0.08 3.307-1.82 8.074-5.016 0.217 0.237 0.522 0.391 0.868 0.391h11.889v11.935c0 0.66 0.531 1.19 1.189 1.19h15.455c0.658 0 1.189-0.53 1.189-1.19v-11.935h11.887c0.66 0 1.19-0.533 1.19-1.193v-15.512c0-0.659-0.53-1.193-1.19-1.193z"/>
    <g id="noun_Health_172423">
     <rect id="Rectangle" y="0" x="0" height="119" width="119"/>
     <path id="Shape" fill-rule="nonzero" fill="#000" d="m110.62 80.977h-11.887v-10.093c9.467-12.103 14.267-24.361 14.267-36.441 0-15.132-12.27-27.443-27.344-27.443-12.302 0-22.731 8.195-26.156 19.43-3.424-11.235-13.854-19.43-26.156-19.43-13.572 0-24.862 9.976-26.981 23.006l-0.0147 0.014c-0.384 0.385-0.4315 0.961-0.1807 1.415-0.1082 0.988-0.1676 1.99-0.1676 3.008 0 1.041 0.0428 2.07 0.1106 3.095-0.1593 0.356-0.1213 0.762 0.0856 1.098 1.3363 14.832 9.5678 27.918 19.156 38.383 0.008 0.009 0.01 0.021 0.019 0.028 0.004 0.005 0.013 0.007 0.017 0.012 14.59 15.911 32.286 25.751 33.543 26.441 0.177 0.1 0.373 0.15 0.569 0.15s0.392-0.05 0.569-0.15c0.147-0.08 3.307-1.82 8.074-5.016 0.217 0.237 0.522 0.391 0.868 0.391h11.889v11.935c0 0.66 0.531 1.19 1.189 1.19h15.455c0.658 0 1.189-0.53 1.189-1.19v-11.935h11.887c0.66 0 1.19-0.533 1.19-1.193v-15.512c0-0.659-0.53-1.193-1.19-1.193zm-7.62 2.387l-19.722 19.786v-5.468c0-0.202-0.063-0.382-0.15-0.549l13.87-13.92c0.166 0.087 0.346 0.151 0.546 0.151h5.456zm-28.741 13.125l22.097-22.177v6.171l-15.948 16.006h-6.149zm-4.059 0v-0.035-4.244l8.814-8.846h3.075c0.657 0 1.189-0.534 1.189-1.194v-3.085l8.814-8.846h4.264v0.239 0.46l-25.459 25.551h-0.697zm0-7.653v-5.472h5.452l-5.452 5.472zm13.078-13.125v-5.472h5.452l-5.452 5.472zm6.436 33.899l6.642-6.66v6.66h-6.642zm7.83-13.121c-0.657 0-1.188 0.533-1.188 1.193v1.892l-10.004 10.036h-3.074v-3.08l23.082-23.166h3.07v3.085l-10 10.04h-1.886zm5.246 0l6.64-6.665v6.665h-6.64zm-43.289 4.591c-1.066-0.61-3.563-2.092-6.904-4.328l2.988-2.999c0.465-0.467 0.465-1.221 0-1.687-0.465-0.467-1.216-0.467-1.681 0l-3.309 3.32c-1.537-1.065-3.204-2.261-4.96-3.579l4.006-4.02c0.464-0.467 0.464-1.221 0-1.687-0.465-0.467-1.217-0.467-1.682 0l-4.233 4.249c-1.326-1.028-2.688-2.121-4.074-3.275l4.044-4.059c0.465-0.466 0.465-1.22 0-1.687-0.465-0.466-1.216-0.466-1.681 0l-4.187 4.201c-1.49-1.281-2.993-2.631-4.495-4.046l4.419-4.435c0.465-0.466 0.465-1.22 0-1.687s-1.217-0.467-1.681 0l-4.46 4.477c-1.223-1.197-2.436-2.44-3.633-3.719l5.018-5.037c0.465-0.466 0.465-1.22 0-1.687-0.465-0.466-1.216-0.466-1.681 0l-4.946 4.964c-1.153-1.289-2.29-2.606-3.387-3.966l5.257-5.277c0.465-0.466 0.465-1.22 0-1.687-0.465-0.466-1.216-0.466-1.681 0l-5.051 5.07c-1.082-1.416-2.118-2.87-3.109-4.355 0.117-0.057 0.233-0.123 0.33-0.221l5.35-5.369c0.465-0.467 0.465-1.221 0-1.687-0.465-0.467-1.216-0.467-1.681 0l-5.284 5.303c-0.812-1.303-1.57-2.635-2.294-3.985 0.123-0.057 0.242-0.126 0.343-0.228l5.944-5.966c0.465-0.466 0.465-1.22 0-1.687-0.465-0.466-1.216-0.466-1.681 0l-5.713 5.733c-0.686-1.404-1.31-2.833-1.88-4.283l8.084-8.114c0.465-0.466 0.465-1.22 0-1.687-0.465-0.466-1.216-0.466-1.681 0l-7.305 7.331c-0.522-1.545-0.99-3.108-1.3598-4.699 0.2889-0.001 0.5788-0.107 0.8068-0.322l9.512-8.949c0.479-0.45 0.503-1.206 0.053-1.687-0.448-0.48-1.202-0.505-1.681-0.054l-9.1639 8.623c-0.2283-1.277-0.4126-2.566-0.5303-3.871l12.537-12.583c0.464-0.466 0.464-1.22 0-1.687-0.465-0.466-1.217-0.466-1.681 0l-11.023 11.062c0.0004-0.226-0.0222-0.448-0.0222-0.674 0-1.133 0.101-2.239 0.2473-3.334l16.049-16.106c0.465-0.467 0.465-1.221 0-1.687-0.465-0.467-1.216-0.467-1.681 0l-13.407 13.455c3.237-10.073 12.659-17.385 23.758-17.385 13.768 0.0004 24.967 11.24 24.967 25.057 0 0.659 0.533 1.193 1.189 1.193s1.189-0.534 1.189-1.193c0-13.817 11.199-25.057 24.967-25.057 13.767 0.0004 24.964 11.24 24.964 25.057 0 11.049-4.24 22.308-12.625 33.498-0.139-0.058-0.29-0.089-0.451-0.089h-15.455c-0.658 0-1.189 0.534-1.189 1.193v11.932h-11.889c-0.657 0-1.189 0.534-1.189 1.193v13.653c-4.03 2.749-7.103 4.567-8.321 5.257z"/>
    </g>
    <path id="Path" fill="#F57437" d="m59.501 101.08c-1.066-0.61-3.563-2.092-6.904-4.328l2.988-2.999c0.465-0.467 0.465-1.221 0-1.687-0.465-0.467-1.216-0.467-1.681 0l-3.309 3.32c-1.537-1.065-3.204-2.261-4.96-3.579l4.006-4.02c0.464-0.467 0.464-1.221 0-1.687-0.465-0.467-1.217-0.467-1.682 0l-4.233 4.249c-1.326-1.028-2.688-2.121-4.074-3.275l4.044-4.059c0.465-0.466 0.465-1.22 0-1.687-0.465-0.466-1.216-0.466-1.681 0l-4.187 4.201c-1.49-1.281-2.993-2.631-4.495-4.046l4.419-4.435c0.465-0.466 0.465-1.22 0-1.687s-1.217-0.467-1.681 0l-4.46 4.477c-1.223-1.197-2.436-2.44-3.633-3.719l5.018-5.037c0.465-0.466 0.465-1.22 0-1.687-0.465-0.466-1.216-0.466-1.681 0l-4.946 4.964c-1.153-1.289-2.29-2.606-3.387-3.966l5.257-5.277c0.465-0.466 0.465-1.22 0-1.687-0.465-0.466-1.216-0.466-1.681 0l-5.051 5.07c-1.082-1.416-2.118-2.87-3.109-4.355 0.117-0.057 0.233-0.123 0.33-0.221l5.35-5.369c0.465-0.467 0.465-1.221 0-1.687-0.465-0.467-1.216-0.467-1.681 0l-5.284 5.303c-0.812-1.303-1.57-2.635-2.294-3.985 0.123-0.057 0.242-0.126 0.343-0.228l5.944-5.966c0.465-0.466 0.465-1.22 0-1.687-0.465-0.466-1.216-0.466-1.681 0l-5.713 5.733c-0.686-1.404-1.31-2.833-1.88-4.283l8.084-8.114c0.465-0.466 0.465-1.22 0-1.687-0.465-0.466-1.216-0.466-1.681 0l-7.305 7.331c-0.522-1.545-0.99-3.108-1.3598-4.699 0.2889-0.001 0.5788-0.107 0.8068-0.322l9.512-8.949c0.479-0.45 0.503-1.206 0.053-1.687-0.448-0.48-1.202-0.505-1.681-0.054l-9.1639 8.623c-0.2283-1.277-0.4126-2.566-0.5303-3.871l12.537-12.583c0.464-0.466 0.464-1.22 0-1.687-0.465-0.466-1.217-0.466-1.681 0l-11.023 11.062c0.0004-0.226-0.0222-0.448-0.0222-0.674 0-1.133 0.101-2.239 0.2473-3.334l16.049-16.106c0.465-0.467 0.465-1.221 0-1.687-0.465-0.467-1.216-0.467-1.681 0l-13.407 13.455c3.237-10.073 12.659-17.385 23.758-17.385 13.768 0.0004 24.967 11.24 24.967 25.057 0 0.659 0.533 1.193 1.189 1.193s1.189-0.534 1.189-1.193c0-13.817 11.199-25.057 24.967-25.057 13.767 0.0004 24.964 11.24 24.964 25.057 0 11.049-4.24 22.308-12.625 33.498-0.139-0.058-0.29-0.089-0.451-0.089h-15.455c-0.658 0-1.189 0.534-1.189 1.193v11.932h-11.889c-0.657 0-1.189 0.534-1.189 1.193v13.653c-4.03 2.749-7.103 4.567-8.321 5.257z"/>
   </g>
  </g>
 </g>
</svg>
